X:1
T:Title
%%score { ( 1 3 ) | ( 2 4 ) }
L:1/8
M:4/4
K:F
V:1 treble nm="Grand Piano"
V:3 treble 
V:2 bass 
V:4 bass 
V:1
 z4 z[Q:1/4=100] CDF | z FFF Fedc | A6 z2 | c6 z2 | c6 z2 | z FFF Fedc | A6 z2 | c6 z2 | %8
[M:7/8] c-c-c- c- c3 |[M:1/4] [Ec]2 |[M:4/4] F2 F>G A2 c2 | [Fd]4 z4 | [Ec]2 [EG]2 [Ec]2 [GB]2 | %13
[M:3/4] [FA]6 |[M:1/4] [Gc]2 |[M:4/4] F2 F>G A2 c2 | [Fd]4[K:bass][K:treble] z4 | %17
 [Fc]2 [A,F]2 [CFA] [B,EG]3 |[M:5/8] [A,F]-[A,F]- [A,F]3 |] %19
V:2
 z8 | z [F,C][F,C][F,C] .[F,C]2 z2 | z [F,C][F,C][F,C] .[F,C]2 z2 | %3
 z [C,G,][C,G,][C,A,] [C,B,]2 [C,B,]2 | [F,A,F][F,C][F,B,][F,D] .[F,C]2 z2 | %5
 z [F,C][F,C][F,C] .[F,C]2 z2 | z [F,C][F,C][F,C] .[F,C]2 z2 | z [G,E][G,E][G,D] [G,C]2 [G,=B,]2 | %8
[M:7/8] [C,G,]2 [C,A,]2 [C,B,]3 |[M:1/4] [C,G,]2 |[M:4/4] [F,A,]2 [F,A,]>[F,B,F] [F,CF]2 [F,A,F]2 | %11
 B,4 [F,A,F]2 [F,CF]>[F,CF] | [C,C]2 [C,C]2 [C,G,]2 [C,C]2 |[M:3/4] [F,C]6 |[M:1/4] [E,C]2 | %15
[M:4/4] [F,A,]2 [F,A,]>[F,B,F] [F,CF]2 [F,A,F]2 | B,4 [F,A,F]2 [B,,B,]>[B,,B,] | %17
 [C,A,]2 D,2 C, C,3 |[M:5/8] F,-F,- F,3 |] %19
V:3
 x8 | A6 z2 | z FFF FA_A=A | z EEF G2 [Ed]2 | z AGB ACDF | A6 z2 | z FFF FA_A=A | z GGF E2 [Fd]2 | %8
[M:7/8] E2 F2 G3 |[M:1/4] x2 |[M:4/4] x8 | z2 D,2 c2 A>A | x8 |[M:3/4] x6 |[M:1/4] x2 |[M:4/4] x8 | %16
 z[K:bass] C,D,E,[K:treble] c2 [Fd]>[Fd] | x8 |[M:5/8] x5 |] %19
V:4
 x8 | x8 | x8 | x8 | x8 | x8 | x8 | x8 |[M:7/8] x7 |[M:1/4] x2 |[M:4/4] x8 | B,,2 z2 z4 | x8 | %13
[M:3/4] x6 |[M:1/4] x2 |[M:4/4] x8 | .B,,2 z2 z4 | x8 |[M:5/8] x5 |] %19

